resources/svg/phone-lock-line.svg

<svg fill="currentColor" viewBox="0 0 24 24" xmlns="http://www.w3.org/2000/svg"><path d="M18 2C18.5523 2 19 2.44772 19 3V10H17V4H7V20H12V22H6C5.44772 22 5 21.5523 5 21V3C5 2.44772 5.44772 2 6 2H18ZM18 12C19.6569 12 21 13.3431 21 15V16H22V21C22 21.5523 21.5523 22 21 22H15C14.4477 22 14 21.5523 14 21V16H15V15C15 13.3431 16.3431 12 18 12ZM20 18H16V20H20V18ZM18 14C17.4919 14 17 14.45 17 15V16H19V15C19 14.4477 18.5523 14 18 14Z"/></svg>

<svg xmlns="http://www.w3.org/2000/svg" viewBox="0 0 24 24" fill="currentColor">
    <g>
        <path fill="none" d="M0 0h24v24H0z"/>
        <path d="M18 2a1 1 0 0 1 1 1v7h-2V4H7v16h5v2H6a1 1 0 0 1-1-1V3a1 1 0 0 1 1-1h12zm0 10a3 3 0 0 1 3 3v1h1v5a1 1 0 0 1-1 1h-6a1 1 0 0 1-1-1v-5h1v-1a3 3 0 0 1 3-3zm2 6h-4v2h4v-2zm-2-4c-.508 0-1 .45-1 1v1h2v-1a1 1 0 0 0-1-1z"/>
    </g>
</svg>
